X:1
T:Title
%%score 1 ( 2 3 )
L:1/8
Q:1/4=105
M:4/4
K:Ab
V:1 treble nm="Grand Piano, Soprano"
V:2 bass nm="Choir Pad, Open Mine Eyes (Johnson)"
V:3 bass 
V:1
 [CE]4 [CE]2 [DF]2 | [DF]3 [CE] [CE]4 | [Ec]4 [Ec]2 [Ec]2 | [Ed]8 | [Ed]4 [EB]2 [EG]2 | %5
w: By~Clarence~A~Johnson * *|||||
 [DF]3 [DE] [DE]4 | E2 [EG]2 [EA]2 [EB]2 | [Ec]8 | [CE]4 [CE]2 [_CF]2 | [_CF]3 [=CE] [CE]4 | %10
w: |||||
 [_GA]4 [GA]2 [Ge]2 | [_Ge]3 [Fd] [Fd]4 | [Fd]4 [Fc]2 [FB]2 | [EB]3 [EA] [EA]4 | %14
w: ||||
 [EG]4 [EA]2 [EB]2 | [EA]8 |] %16
w: ||
V:2
 [A,,A,]4 [A,,A,]2 [D,A,]2 | [D,A,]3 [A,,A,] [A,,A,]4 | A,2 G,2 [A,,F,]2 [=A,,_G,]2 | [B,,G,]8 | %4
 [E,G,]4 [E,G,]2 [E,B,]2 | [E,A,]3 [E,G,] [E,G,]4 | E,2 [D,B,]2 [C,A,]2 [B,,G,]2 | [A,,A,]8 | %8
 [A,,A,]4 [A,,E,]2 [A,,=D,]2 | [A,,=D,]3 [A,,E,] [A,,E,]4 | [A,C]4 [A,C]2 [C,A,]2 | %11
 [D,A,]3 [D,A,] [D,A,]4 | [B,,B,]4 [B,,=A,]2 [D,B,]2 | [E,C]3 [E,C] [E,C]4 | [E,D]4 [E,C]2 [E,D]2 | %15
 [A,C]8 |] %16
V:3
 x8 | x8 | A,,4 z4 | x8 | x8 | x8 | x8 | x8 | x8 | x8 | x8 | x8 | x8 | x8 | x8 | x8 |] %16

